public_html/images/ico/instagram.svg

<svg xmlns="http://www.w3.org/2000/svg" width="260" height="259" viewBox="0 0 260 259"><defs><radialGradient id="a" cx="29.008%" cy="99.791%" r="100.892%" fx="29.008%" fy="99.791%"><stop stop-color="#FFD776" offset="0%"/><stop stop-color="#F3A554" offset="24.63%"/><stop stop-color="#F15C3C" offset="37.93%"/><stop stop-color="#D94867" offset="53.94%"/><stop stop-color="#C32F87" offset="69.95%"/><stop stop-color="#7D63A7" offset="91.22%"/><stop stop-color="#5C6CB3" offset="98.52%"/></radialGradient><radialGradient id="b" cx="29.063%" cy="99.751%" r="100.814%" fx="29.063%" fy="99.751%"><stop stop-color="#FFD776" offset="0%"/><stop stop-color="#F3A554" offset="24.63%"/><stop stop-color="#F15C3C" offset="37.93%"/><stop stop-color="#D94867" offset="60.7%"/><stop stop-color="#C32F87" offset="83.46%"/><stop stop-color="#7D63A7" offset="95.77%"/><stop stop-color="#5C6CB3" offset="100%"/></radialGradient><radialGradient id="c" cx="29.104%" cy="99.775%" r="101.074%" fx="29.104%" fy="99.775%"><stop stop-color="#5F6DB3" offset="0%"/><stop stop-color="#5C6CB3" offset="100%"/></radialGradient></defs><g fill="none"><path fill="url(#a)" d="M252.7 44.7c-3.3-8.5-7.7-15.7-14.9-22.9-7.2-7.2-14.4-11.6-22.9-14.9-8.2-3.2-17.7-5.4-31.4-6-13.8-.6-18.2-.8-53.4-.8S90.5.2 76.7.9c-13.8.6-23.2 2.8-31.4 6-8.5 3.3-15.7 7.7-22.9 14.9C15.2 29 10.8 36.2 7.5 44.7c-3.2 8.2-5.4 17.7-6 31.4C.9 89.9.7 94.3.7 129.5s.1 39.6.8 53.4c.6 13.8 2.8 23.2 6 31.4 3.3 8.5 7.7 15.7 14.9 22.9 7.2 7.2 14.4 11.6 22.9 14.9 8.2 3.2 17.7 5.4 31.4 6 13.8.6 18.2.8 53.4.8s39.6-.1 53.4-.8c13.8-.6 23.2-2.8 31.4-6 8.5-3.3 15.7-7.7 22.9-14.9 7.2-7.2 11.6-14.4 14.9-22.9 3.2-8.2 5.4-17.7 6-31.4.6-13.8.8-18.2.8-53.4s-.1-39.6-.8-53.4c-.6-13.8-2.8-23.2-6-31.4zm-17.3 137.1c-.6 12.6-2.7 19.5-4.5 24-2.3 6-5.2 10.4-9.7 14.9-4.5 4.5-8.8 7.3-14.9 9.7-4.6 1.8-11.4 3.9-24 4.5-13.7.6-17.7.8-52.3.8-34.6 0-38.7-.1-52.3-.8-12.6-.6-19.5-2.7-24-4.5-6-2.3-10.4-5.2-14.9-9.7-4.5-4.5-7.3-8.8-9.7-14.9-1.8-4.6-3.9-11.4-4.5-24-.6-13.7-.8-17.8-.8-52.3s.1-38.7.8-52.3c.6-12.6 2.7-19.5 4.5-24 2.3-6 5.2-10.4 9.7-14.9 4.5-4.5 8.8-7.3 14.9-9.7 4.6-1.8 11.4-3.9 24-4.5 13.7-.6 17.8-.8 52.3-.8s38.7.1 52.3.8c12.6.6 19.5 2.7 24 4.5 6 2.3 10.4 5.2 14.9 9.7 4.5 4.5 7.3 8.8 9.7 14.9 1.8 4.6 3.9 11.4 4.5 24 .6 13.7.8 17.8.8 52.3s-.2 38.7-.8 52.3z"/><path fill="url(#b)" d="M130 63c-36.7 0-66.5 29.8-66.5 66.5S93.3 196 130 196s66.5-29.8 66.5-66.5S166.7 63 130 63zm0 109.7c-23.8 0-43.2-19.3-43.2-43.2 0-23.8 19.3-43.2 43.2-43.2 23.9 0 43.2 19.3 43.2 43.2 0 23.8-19.4 43.2-43.2 43.2z"/><circle cx="199.1" cy="60.4" r="15.5" fill="url(#c)"/></g></svg>

<svg xmlns="http://www.w3.org/2000/svg" width="260" height="259" viewBox="0 0 260 259">
  <defs>
    <radialGradient id="a" cx="29.008%" cy="99.791%" r="100.892%" fx="29.008%" fy="99.791%">
      <stop stop-color="#FFD776" offset="0%"/>
      <stop stop-color="#F3A554" offset="24.63%"/>
      <stop stop-color="#F15C3C" offset="37.93%"/>
      <stop stop-color="#D94867" offset="53.94%"/>
      <stop stop-color="#C32F87" offset="69.95%"/>
      <stop stop-color="#7D63A7" offset="91.22%"/>
      <stop stop-color="#5C6CB3" offset="98.52%"/>
    </radialGradient>
    <radialGradient id="b" cx="29.063%" cy="99.751%" r="100.814%" fx="29.063%" fy="99.751%">
      <stop stop-color="#FFD776" offset="0%"/>
      <stop stop-color="#F3A554" offset="24.63%"/>
      <stop stop-color="#F15C3C" offset="37.93%"/>
      <stop stop-color="#D94867" offset="60.7%"/>
      <stop stop-color="#C32F87" offset="83.46%"/>
      <stop stop-color="#7D63A7" offset="95.77%"/>
      <stop stop-color="#5C6CB3" offset="100%"/>
    </radialGradient>
    <radialGradient id="c" cx="29.104%" cy="99.775%" r="101.074%" fx="29.104%" fy="99.775%">
      <stop stop-color="#5F6DB3" offset="0%"/>
      <stop stop-color="#5C6CB3" offset="100%"/>
    </radialGradient>
  </defs>
  <g fill="none">
    <path fill="url(#a)" d="M252.7,44.7 C249.4,36.2 245,29 237.8,21.8 C230.6,14.6 223.4,10.2 214.9,6.9 C206.7,3.7 197.2,1.5 183.5,0.9 C169.7,0.3 165.3,0.1 130.1,0.1 C94.9,0.1 90.5,0.2 76.7,0.9 C62.9,1.5 53.5,3.7 45.3,6.9 C36.8,10.2 29.6,14.6 22.4,21.8 C15.2,29 10.8,36.2 7.5,44.7 C4.3,52.9 2.1,62.4 1.5,76.1 C0.9,89.9 0.7,94.3 0.7,129.5 C0.7,164.7 0.8,169.1 1.5,182.9 C2.1,196.7 4.3,206.1 7.5,214.3 C10.8,222.8 15.2,230 22.4,237.2 C29.6,244.4 36.8,248.8 45.3,252.1 C53.5,255.3 63,257.5 76.7,258.1 C90.5,258.7 94.9,258.9 130.1,258.9 C165.3,258.9 169.7,258.8 183.5,258.1 C197.3,257.5 206.7,255.3 214.9,252.1 C223.4,248.8 230.6,244.4 237.8,237.2 C245,230 249.4,222.8 252.7,214.3 C255.9,206.1 258.1,196.6 258.7,182.9 C259.3,169.1 259.5,164.7 259.5,129.5 C259.5,94.3 259.4,89.9 258.7,76.1 C258.1,62.3 255.9,52.9 252.7,44.7 Z M235.4,181.8 C234.8,194.4 232.7,201.3 230.9,205.8 C228.6,211.8 225.7,216.2 221.2,220.7 C216.7,225.2 212.4,228 206.3,230.4 C201.7,232.2 194.9,234.3 182.3,234.9 C168.6,235.5 164.6,235.7 130,235.7 C95.4,235.7 91.3,235.6 77.7,234.9 C65.1,234.3 58.2,232.2 53.7,230.4 C47.7,228.1 43.3,225.2 38.8,220.7 C34.3,216.2 31.5,211.9 29.1,205.8 C27.3,201.2 25.2,194.4 24.6,181.8 C24,168.1 23.8,164 23.8,129.5 C23.8,95 23.9,90.8 24.6,77.2 C25.2,64.6 27.3,57.7 29.1,53.2 C31.4,47.2 34.3,42.8 38.8,38.3 C43.3,33.8 47.6,31 53.7,28.6 C58.3,26.8 65.1,24.7 77.7,24.1 C91.4,23.5 95.5,23.3 130,23.3 C164.5,23.3 168.7,23.4 182.3,24.1 C194.9,24.7 201.8,26.8 206.3,28.6 C212.3,30.9 216.7,33.8 221.2,38.3 C225.7,42.8 228.5,47.1 230.9,53.2 C232.7,57.8 234.8,64.6 235.4,77.2 C236,90.9 236.2,95 236.2,129.5 C236.2,164 236,168.2 235.4,181.8 Z"/>
    <path fill="url(#b)" d="M130,63 C93.3,63 63.5,92.8 63.5,129.5 C63.5,166.2 93.3,196 130,196 C166.7,196 196.5,166.2 196.5,129.5 C196.5,92.8 166.7,63 130,63 Z M130,172.7 C106.2,172.7 86.8,153.4 86.8,129.5 C86.8,105.7 106.1,86.3 130,86.3 C153.9,86.3 173.2,105.6 173.2,129.5 C173.2,153.3 153.8,172.7 130,172.7 Z"/>
    <circle cx="199.1" cy="60.4" r="15.5" fill="url(#c)"/>
  </g>
</svg>
